X:1
T:Hoffman, LMD
T:Charles Hutchinson Gabriel, 1913
T:Hoffman, LMD
T:Public Domain
C:Charles Hutchinson Gabriel, 1913
Z:Public Domain
%%score ( 1 2 ) ( 3 4 )
L:1/8
M:3/4
K:Ab
V:1 treble 
V:2 treble 
V:3 bass 
V:4 bass 
V:1
 [CE][CE] [CA] | [Ec]3 [Fd] [Ec][CA] | [CE]3 E E[EG] | [DB]3 [Ec] [DB][CA] | [CA]3 [CE] [CA][Ec] | %5
 [Ae]3 [Ae] [Af][Ae] | [Ec]3 [CE] [EA][FB] | [Ec][Ed] [Ec]2 [DB]2 | [CA]3 [CA] [DA][DG] | %9
 [DB]3 [Ec] [DB][CA] | [Ec]3 [Ec] [=Dc][DB] | [=DB]3 [F=d] [Ac][AB] | [Ge]3 [CE] [CA][Ec] | %13
 [Ae]3 [Ae] [Af][Ae] | [Ec]3 [CE] [EA][FB] | [Ec][Ed] [Ec]2 [DB]2 | [CA]3 |] %17
V:2
 x3 | x6 | x3 E E x | x6 | x6 | x6 | x6 | x6 | x6 | x6 | x6 | x6 | x6 | x6 | x6 | x6 | x3 |] %17
V:3
 [A,,A,][A,,A,] [A,,A,] | [A,,A,]3 [A,,A,] [A,,A,][A,,A,] | [A,,A,]3 [C,A,] [E,G,][E,B,] | %3
 [E,G,]3 [E,G,] [A,,A,][A,,A,] | [A,,A,]3 [A,,A,] [A,,A,][A,,A,] | [A,C]3 [A,C] [A,D][A,C] | %6
 A,3 [A,,A,] [C,A,][D,A,] | [E,A,][E,B,] [E,A,]2 [E,G,]2 | [A,,A,]3 [A,,A,] [E,B,][E,B,] | %9
 [E,G,]3 [E,G,] [A,,A,][A,,A,] | [A,,A,]3 [A,,A,] [B,,A,][B,,A,] | [B,,A,]3 [B,,B,] [C,B,][=D,B,] | %12
 [E,B,]3 A, A,A, | [A,C]3 [A,C] [A,D][A,C] | A,3 [A,,A,] [C,A,][D,A,] | %15
 [E,A,][E,B,] [E,A,]2 [E,G,]2 | [A,,A,]3 |] %17
V:4
 x3 | x6 | x6 | x6 | x6 | x6 | A,3 x3 | x6 | x6 | x6 | x6 | x6 | x3 A, A,A, | x6 | A,3 x3 | x6 | %16
 x3 |] %17

